candy.svg

<svg fill="currentColor" viewBox="0 0 24 24"><path d="M15.54 8.46c1.96 1.96 1.96 5.12 0 7.08s-5.12 1.96-7.07 0-1.97-5.12 0-7.08 5.11-1.96 7.07 0m3.93-3.91s-.97.12-2.04.81a5.24 5.24 0 0 0-1.5-2.94 4.03 4.03 0 0 0-1.1 3.92c1.39.36 2.47 1.44 2.83 2.83 1.12.3 2.68.15 3.92-1.1a5.25 5.25 0 0 0-2.9-1.49c.39-.58.7-1.25.79-2.03M4.53 19.45s.97-.12 2.04-.81c.15 1.04.65 2.09 1.5 2.94 1.25-1.24 1.4-2.8 1.1-3.92a3.94 3.94 0 0 1-2.83-2.83c-1.12-.3-2.68-.15-3.92 1.1.84.84 1.87 1.34 2.9 1.49-.39.58-.7 1.26-.79 2.03"/></svg>

<svg  viewBox="0 0 24 24" fill="currentColor"><path  d="M15.54 8.46C17.5 10.42 17.5 13.58 15.54 15.54S10.42 17.5 8.47 15.54 6.5 10.42 8.47 8.46 13.58 6.5 15.54 8.46M19.47 4.55C19.47 4.55 18.5 4.67 17.43 5.36C17.28 4.32 16.78 3.27 15.93 2.42C14.68 3.66 14.53 5.22 14.83 6.34C16.22 6.7 17.3 7.78 17.66 9.17C18.78 9.47 20.34 9.32 21.58 8.07C20.74 7.23 19.71 6.74 18.68 6.58C19.07 6 19.38 5.33 19.47 4.55M4.53 19.45C4.53 19.45 5.5 19.33 6.57 18.64C6.72 19.68 7.22 20.73 8.07 21.58C9.32 20.34 9.47 18.78 9.17 17.66C7.78 17.3 6.7 16.22 6.34 14.83C5.22 14.53 3.66 14.68 2.42 15.93C3.26 16.77 4.29 17.27 5.32 17.42C4.93 18 4.62 18.68 4.53 19.45Z"/></svg>
